neru-light-classic/22x22/places/folder-tar.svg

<?xml version="1.0" encoding="UTF-8" standalone="no"?>
<svg
   xmlns:dc="http://purl.org/dc/elements/1.1/"
   xmlns:cc="http://creativecommons.org/ns#"
   xmlns:rdf="http://www.w3.org/1999/02/22-rdf-syntax-ns#"
   xmlns:svg="http://www.w3.org/2000/svg"
   xmlns="http://www.w3.org/2000/svg"
   xmlns:sodipodi="http://sodipodi.sourceforge.net/DTD/sodipodi-0.dtd"
   xmlns:inkscape="http://www.inkscape.org/namespaces/inkscape"
   width="22"
   height="22"
   viewBox="0 0 16 16"
   version="1.1"
   id="svg7"
   sodipodi:docname="folder-tar.svg"
   inkscape:version="0.92.4 5da689c313, 2019-01-14">
  <metadata
     id="metadata11">
    <rdf:RDF>
      <cc:Work
         rdf:about="">
        <dc:format>image/svg+xml</dc:format>
        <dc:type
           rdf:resource="http://purl.org/dc/dcmitype/StillImage" />
      </cc:Work>
    </rdf:RDF>
  </metadata>
  <sodipodi:namedview
     pagecolor="#ffffff"
     bordercolor="#666666"
     borderopacity="1"
     objecttolerance="10"
     gridtolerance="10"
     guidetolerance="10"
     inkscape:pageopacity="0"
     inkscape:pageshadow="2"
     inkscape:window-width="769"
     inkscape:window-height="515"
     id="namedview9"
     showgrid="false"
     inkscape:zoom="10.727273"
     inkscape:cx="11"
     inkscape:cy="11"
     inkscape:window-x="0"
     inkscape:window-y="28"
     inkscape:window-maximized="0"
     inkscape:current-layer="svg7" />
  <defs
     id="defs3">
    <style
       id="current-color-scheme"
       type="text/css">
   .ColorScheme-Text { color:#5c616c; } .ColorScheme-Highlight { color:#5294e2; }
  </style>
  </defs>
  <path
     style="color:#5c616c;fill:#1e333d;stroke-width:0.83116883;fill-opacity:1"
     class="ColorScheme-Text"
     d="M 3.7662337,2.600824 C 3.3520707,2.636315 3.070296,2.9996936 2.9870129,3.3800448 2.7445195,4.1210484 2.4950441,4.870663 2.2597402,5.6138111 L 2.1818182,5.9254994 V 12.57485 c 0,0.460468 0.3707014,0.831169 0.8311688,0.831169 h 9.974026 c 0.460468,0 0.831169,-0.370701 0.831169,-0.831169 V 5.9254994 L 13.714286,5.535889 C 13.433159,4.7132562 13.180135,3.8587565 12.883117,3.0423825 12.705263,2.6782224 12.299719,2.5629892 11.922078,2.600824 Z m 0.6801948,1.6623377 h 7.0925325 c 0.0898,0.2684758 0.184554,0.5550878 0.275974,0.8311688 H 4.1753247 C 4.2657142,4.8169113 4.3547091,4.5423929 4.4464285,4.2631617 Z M 7.1688312,6.7566682 H 8.8311688 V 9.2501748 H 10.285714 L 8,11.743681 5.7142857,9.2501748 h 1.4545455 z"
     id="path5"
     inkscape:connector-curvature="0" />
</svg>

<svg xmlns="http://www.w3.org/2000/svg" width="22" height="22" viewBox="0 0 16 16" version="1.1" id="svg7"><defs id="defs3"><style id="current-color-scheme" type="text/css"></style></defs><path d="M3.766 2.6c-.414.036-.696.4-.779.78-.242.741-.492 1.49-.727 2.234l-.078.311v6.65c0 .46.37.831.831.831h9.974a.83.83 0 0 0 .831-.831v-6.65l-.104-.39c-.28-.822-.534-1.676-.83-2.493-.179-.364-.584-.479-.962-.441zm.68 1.663h7.093l.276.831h-7.64l.271-.83zM7.17 6.757H8.83V9.25h1.455L8 11.744 5.714 9.25H7.17z" id="path5" color="#5c616c" fill="#1e333d" stroke-width=".831" fill-opacity="1"/></svg>
